app/ui/static/images/icons/solid/inbox.svg

<svg width="20" height="20" viewBox="0 0 20 20" fill="none" xmlns="http://www.w3.org/2000/svg">
<path fill-rule="evenodd" clip-rule="evenodd" d="M1 11.2708C1 11.0237 1.03331 10.7777 1.09902 10.5395L2.622 5.0187C2.95099 3.82611 4.03584 3 5.27298 3H14.727C15.9642 3 17.049 3.8261 17.378 5.0187L18.901 10.5395C18.9667 10.7777 19 11.0237 19 11.2708V15C19 16.1046 18.1046 17 17 17H3C1.89543 17 1 16.1046 1 15V11.2708ZM4.06799 5.41759C4.21753 4.8755 4.71065 4.5 5.27298 4.5H14.727C15.2894 4.5 15.7825 4.8755 15.932 5.41759L17.455 10.9384C17.4606 10.9588 17.4657 10.9794 17.4703 11H14C13.6471 11 13.3203 11.186 13.1401 11.4895L12.5339 12.5105C12.3537 12.814 12.0269 13 11.674 13H8.23607C7.8573 13 7.51103 12.786 7.34164 12.4472L6.89443 11.5528C6.72504 11.214 6.37877 11 6 11H2.52969C2.53427 10.9794 2.53938 10.9588 2.54501 10.9384L4.06799 5.41759Z" fill="#0F172A"/>
</svg>

<svg xmlns="http://www.w3.org/2000/svg" viewBox="0 0 20 20" fill="currentColor" aria-hidden="true">
  <path fill-rule="evenodd" d="M1 11.27c0-.246.033-.492.099-.73l1.523-5.521A2.75 2.75 0 015.273 3h9.454a2.75 2.75 0 012.651 2.019l1.523 5.52c.066.239.099.485.099.732V15a2 2 0 01-2 2H3a2 2 0 01-2-2v-3.73zm3.068-5.852A1.25 1.25 0 015.273 4.5h9.454a1.25 1.25 0 011.205.918l1.523 5.52c.006.02.01.041.015.062H14a1 1 0 00-.86.49l-.606 1.02a1 1 0 01-.86.49H8.236a1 1 0 01-.894-.553l-.448-.894A1 1 0 006 11H2.53l.015-.062 1.523-5.52z" clip-rule="evenodd"/>
</svg>
